build/Karasa-Jaga/scalable/places/group-favoritefolders.svg

<svg height="22" width="22" xmlns="http://www.w3.org/2000/svg"><path d="m3.71875 3.46875c-.162253 0-.3125.1316925-.3125.28125v1.65625h-.8125c-.162253 0-.3125.1316924-.3125.28125l-.03125 2.8125h1.53125l.0625-1.4375c.01057-.3478486.309805-.65625.6875-.65625h.4375v-.625-.375-.28125c0-.00837-.000355-.022959 0-.03125 0-.011588-.00074-.01982 0-.03125.01509-.1600386.097642-.3020093.21875-.40625.05868-.050508.081442-.0956633.15625-.125.0067-.00287.02448.00271.03125 0 .07678-.030719.161266-.023613.25-.03125.02614-.00225.06687-.03125.09375-.03125h3.0625c.02688 0 .03636.029.0625.03125.09515.00819.200063-.003294.28125.03125.157158.06687.305986.2078648.375.34375.03498.075735.03125.1629977.03125.25v.28125.28125.71875h7.46875.125.34375c.377695 0 .6875.3082409.6875.65625l-.03125 1.34375h1.53125l.0625-2.71875c.001-.064272-.02219-.0751983-.09375-.125-.06005-.041802-.169493-.0951388-.28125-.15625h-2.21875-.125-5.90625v-1.65625c0-.064281-.02219-.0751983-.09375-.125-.06005-.041802-.169493-.0951378-.28125-.15625h-2.21875-.125-2.3125zm16.84375 5.15625-19.40625.125c-.21560899.1632252-.22492.420793-.1875.6875l.90625 9.09375 18.5625-.0625.625-9.28125zm-9.28125.78125c.272316 0 1.154712 2.300553 1.375 2.46875.220306.168161 2.572062.321667 2.65625.59375.08414.272083-1.915812 1.69664-2 1.96875-.08414.272084.876556 2.863053.65625 3.03125-.220306.168161-2.415211-1.5-2.6875-1.5-.272316 0-2.467211 1.668197-2.6875 1.5-.220306-.168161.771652-2.75914.6875-3.03125-.08428-.271661-2.115438-1.697088-2.03125-1.96875.08419-.272558 2.435693-.425194 2.65625-.59375.21966-.168556 1.102442-2.46875 1.375-2.46875z" fill="#bebebe"/></svg>

<?xml version="1.0" encoding="UTF-8" standalone="no"?>
<!-- Created with Inkscape (http://www.inkscape.org/) -->

<svg
   xmlns:dc="http://purl.org/dc/elements/1.1/"
   xmlns:cc="http://creativecommons.org/ns#"
   xmlns:rdf="http://www.w3.org/1999/02/22-rdf-syntax-ns#"
   xmlns:svg="http://www.w3.org/2000/svg"
   xmlns="http://www.w3.org/2000/svg"
   xmlns:sodipodi="http://sodipodi.sourceforge.net/DTD/sodipodi-0.dtd"
   xmlns:inkscape="http://www.inkscape.org/namespaces/inkscape"
   id="svg3320"
   height="22"
   width="22"
   version="1.0"
   inkscape:version="0.48.3.1 r9886"
   sodipodi:docname="group-favoritefolders.svg">
  <metadata
     id="metadata4590">
    <rdf:RDF>
      <cc:Work
         rdf:about="">
        <dc:format>image/svg+xml</dc:format>
        <dc:type
           rdf:resource="http://purl.org/dc/dcmitype/StillImage" />
      </cc:Work>
    </rdf:RDF>
  </metadata>
  <defs
     id="defs4588" />
  <sodipodi:namedview
     pagecolor="#ffffff"
     bordercolor="#666666"
     borderopacity="1"
     objecttolerance="10"
     gridtolerance="10"
     guidetolerance="10"
     inkscape:pageopacity="1"
     inkscape:pageshadow="2"
     inkscape:window-width="1366"
     inkscape:window-height="714"
     id="namedview4586"
     showgrid="false"
     inkscape:zoom="10.727273"
     inkscape:cx="-0.71343184"
     inkscape:cy="10.606359"
     inkscape:window-x="0"
     inkscape:window-y="22"
     inkscape:window-maximized="1"
     inkscape:current-layer="svg3320" />
  <path
     style="fill:#ffffff;fill-opacity:1"
     d="M 3.71875 3.46875 C 3.556497 3.46875 3.40625 3.6004425 3.40625 3.75 L 3.40625 5.40625 L 2.59375 5.40625 C 2.431497 5.40625 2.28125 5.5379424 2.28125 5.6875 L 2.25 8.5 L 3.78125 8.5 L 3.84375 7.0625 C 3.85432 6.7146514 4.153555 6.40625 4.53125 6.40625 L 4.96875 6.40625 L 4.96875 5.78125 L 4.96875 5.40625 L 4.96875 5.125 C 4.96875 5.11663 4.968395 5.102041 4.96875 5.09375 C 4.96875 5.082162 4.96801 5.07393 4.96875 5.0625 C 4.98384 4.9024614 5.066392 4.7604907 5.1875 4.65625 C 5.24618 4.605742 5.268942 4.5605867 5.34375 4.53125 C 5.35045 4.52838 5.36823 4.53396 5.375 4.53125 C 5.45178 4.500531 5.536266 4.507637 5.625 4.5 C 5.65114 4.49775 5.69187 4.46875 5.71875 4.46875 L 8.78125 4.46875 C 8.80813 4.46875 8.81761 4.49775 8.84375 4.5 C 8.9389 4.50819 9.043813 4.496706 9.125 4.53125 C 9.282158 4.59812 9.430986 4.7391148 9.5 4.875 C 9.53498 4.950735 9.53125 5.0379977 9.53125 5.125 L 9.53125 5.40625 L 9.53125 5.6875 L 9.53125 6.40625 L 17 6.40625 L 17.125 6.40625 L 17.46875 6.40625 C 17.846445 6.40625 18.15625 6.7144909 18.15625 7.0625 L 18.125 8.40625 L 19.65625 8.40625 L 19.71875 5.6875 C 19.71975 5.623228 19.69656 5.6123017 19.625 5.5625 C 19.56495 5.520698 19.455507 5.4673612 19.34375 5.40625 L 17.125 5.40625 L 17 5.40625 L 11.09375 5.40625 L 11.09375 3.75 C 11.09375 3.685719 11.07156 3.6748017 11 3.625 C 10.93995 3.583198 10.830507 3.5298622 10.71875 3.46875 L 8.5 3.46875 L 8.375 3.46875 L 6.0625 3.46875 L 3.71875 3.46875 z M 20.5625 8.625 L 1.15625 8.75 C 0.94064101 8.9132252 0.93133 9.170793 0.96875 9.4375 L 1.875 18.53125 L 20.4375 18.46875 L 21.0625 9.1875 L 20.5625 8.625 z M 11.28125 9.40625 C 11.553566 9.40625 12.435962 11.706803 12.65625 11.875 C 12.876556 12.043161 15.228312 12.196667 15.3125 12.46875 C 15.39664 12.740833 13.396688 14.16539 13.3125 14.4375 C 13.22836 14.709584 14.189056 17.300553 13.96875 17.46875 C 13.748444 17.636911 11.553539 15.96875 11.28125 15.96875 C 11.008934 15.96875 8.814039 17.636947 8.59375 17.46875 C 8.373444 17.300589 9.365402 14.70961 9.28125 14.4375 C 9.19697 14.165839 7.165812 12.740412 7.25 12.46875 C 7.33419 12.196192 9.685693 12.043556 9.90625 11.875 C 10.12591 11.706444 11.008692 9.40625 11.28125 9.40625 z "
     id="path4488" />
</svg>
